dist/static/img/svg/whatsapp.svg

<svg width="32" height="32" viewBox="0 0 32 32" fill="none" xmlns="http://www.w3.org/2000/svg">
<g clip-path="url(#clip0_578_3818)">
<path fill-rule="evenodd" clip-rule="evenodd" d="M27.2842 4.65067C24.2895 1.65333 20.3082 0.00133333 16.0668 0C7.32684 0 0.213505 7.112 0.209505 15.856C0.208172 18.6507 0.938838 21.3787 2.32684 23.784L0.0761719 32L8.48151 29.7947C10.7975 31.0587 13.4055 31.724 16.0588 31.7253H16.0655C24.8042 31.7253 31.9188 24.612 31.9228 15.868C31.9255 11.632 30.2775 7.64667 27.2842 4.65067ZM16.0668 29.0467H16.0615C13.6962 29.0467 11.3775 28.4107 9.35351 27.2093L8.87217 26.924L3.88417 28.232L5.21617 23.368L4.90284 22.8693C3.58284 20.7707 2.88684 18.3453 2.88817 15.856C2.89084 8.58933 8.80417 2.67733 16.0735 2.67733C19.5935 2.67733 22.9028 4.05067 25.3908 6.54133C27.8788 9.03333 29.2482 12.344 29.2468 15.8653C29.2428 23.1347 23.3308 29.0467 16.0668 29.0467ZM23.2962 19.176C22.9002 18.9773 20.9522 18.0187 20.5882 17.8867C20.2255 17.7547 19.9615 17.688 19.6962 18.084C19.4308 18.48 18.6735 19.3733 18.4415 19.6387C18.2108 19.9027 17.9788 19.936 17.5828 19.7373C17.1868 19.5387 15.9095 19.1213 14.3962 17.7707C13.2188 16.72 12.4228 15.4227 12.1922 15.0253C11.9615 14.628 12.1682 14.4147 12.3655 14.2173C12.5442 14.04 12.7615 13.7547 12.9602 13.5227C13.1602 13.2933 13.2255 13.128 13.3588 12.8627C13.4908 12.5987 13.4255 12.3667 13.3255 12.168C13.2255 11.9707 12.4335 10.02 12.1042 9.22667C11.7828 8.45333 11.4562 8.55867 11.2122 8.54667C10.9815 8.53467 10.7175 8.53333 10.4522 8.53333C10.1882 8.53333 9.75884 8.632 9.39617 9.02933C9.03351 9.42667 8.00951 10.3853 8.00951 12.3347C8.00951 14.2853 9.42951 16.1693 9.62684 16.4333C9.82417 16.6973 12.4202 20.7 16.3948 22.416C17.3402 22.824 18.0788 23.068 18.6535 23.2507C19.6028 23.552 20.4668 23.5093 21.1495 23.408C21.9108 23.2947 23.4935 22.4493 23.8242 21.524C24.1548 20.5987 24.1548 19.804 24.0548 19.64C23.9562 19.4733 23.6922 19.3747 23.2962 19.176Z" fill="#48A91F"/>
</g>
<defs>
<clipPath id="clip0_578_3818">
<rect width="32" height="32" fill="white"/>
</clipPath>
</defs>
</svg>

<svg width="32" height="32" viewBox="0 0 32 32" fill="none" xmlns="http://www.w3.org/2000/svg"><g clip-path="url(#clip0_578_3818)"><path fill-rule="evenodd" clip-rule="evenodd" d="M27.284 4.65A15.756 15.756 0 0016.067 0C7.327 0 .214 7.112.21 15.856a15.828 15.828 0 002.117 7.928L.077 32l8.405-2.205a15.84 15.84 0 007.577 1.93h.006c8.74 0 15.854-7.113 15.858-15.857a15.755 15.755 0 00-4.639-11.217zM16.067 29.048h-.006c-2.365 0-4.684-.636-6.707-1.838l-.482-.285-4.988 1.308 1.332-4.864-.313-.499a13.14 13.14 0 01-2.015-7.013c.003-7.268 5.916-13.18 13.185-13.18 3.52 0 6.83 1.374 9.318 3.864a13.103 13.103 0 013.856 9.324c-.004 7.27-5.916 13.182-13.18 13.182zm7.23-9.871c-.397-.199-2.345-1.157-2.709-1.29-.363-.131-.627-.198-.892.198s-1.023 1.29-1.255 1.555c-.23.264-.462.297-.858.098-.396-.198-1.673-.616-3.187-1.966-1.177-1.051-1.973-2.348-2.204-2.746-.23-.397-.024-.61.174-.808.178-.177.396-.462.594-.694.2-.23.265-.395.399-.66.132-.264.066-.496-.034-.695-.1-.197-.891-2.148-1.22-2.941-.322-.774-.649-.668-.893-.68-.23-.012-.495-.014-.76-.014-.264 0-.693.099-1.056.496-.362.398-1.386 1.356-1.386 3.306s1.42 3.834 1.617 4.098c.197.264 2.793 4.267 6.768 5.983a22.94 22.94 0 002.259.835c.949.301 1.813.258 2.495.157.762-.113 2.345-.959 2.675-1.884.33-.925.33-1.72.23-1.884-.098-.167-.362-.265-.758-.464z" fill="#48A91F"/></g><defs><clipPath id="clip0_578_3818"><path fill="#fff" d="M0 0h32v32H0z"/></clipPath></defs></svg>
